X:1
T:I'm Jolly Dick the Lamplighter. Roose.0491
L:1/8
Q:3/8=100
M:6/8
I:linebreak $
K:A
V:1 treble 
V:1
 c | dcd B2 e | c2 A A2 A/G/ | F2 F FGA | B3- B2 B/A/ | G2 G B2 B | e2 E E2 E | FGA F2 D | E3 E2 :: %9
 c |$ ded f2 f | c2 c e2 e | A2 c B2 A | (A3{BA} G2) c | dcd B2 e | c2 A A2 A/G/ | F2 F FGA | %17
 B3- B2 c | dcd B2 e |$ c2 A d2 B | ecA GFE | d3 f3 | ecA GFE |"^Sym" Ace cea | ecA GFE | Ace cea | %26
 ecA GFE |$ A3 A,3 :| %28
